legacy/static/svg/quiver.svg

<?xml version="1.0" encoding="UTF-8" standalone="no"?>
<!-- Generator: Adobe Illustrator 19.0.0, SVG Export Plug-In . SVG Version: 6.00 Build 0)  -->

<svg
   xmlns:dc="http://purl.org/dc/elements/1.1/"
   xmlns:cc="http://creativecommons.org/ns#"
   xmlns:rdf="http://www.w3.org/1999/02/22-rdf-syntax-ns#"
   xmlns:svg="http://www.w3.org/2000/svg"
   xmlns="http://www.w3.org/2000/svg"
   xmlns:sodipodi="http://sodipodi.sourceforge.net/DTD/sodipodi-0.dtd"
   xmlns:inkscape="http://www.inkscape.org/namespaces/inkscape"
   version="1.1"
   id="Capa_1"
   x="0px"
   y="0px"
   viewBox="0 0 511.999 511.999"
   style="enable-background:new 0 0 511.999 511.999;"
   xml:space="preserve"
   sodipodi:docname="quiver.svg"
   inkscape:version="0.92.2 5c3e80d, 2017-08-06"><metadata
     id="metadata1197"><rdf:RDF><cc:Work
         rdf:about=""><dc:format>image/svg+xml</dc:format><dc:type
           rdf:resource="http://purl.org/dc/dcmitype/StillImage" /></cc:Work></rdf:RDF></metadata><defs
     id="defs1195" /><sodipodi:namedview
     pagecolor="#ffffff"
     bordercolor="#666666"
     borderopacity="1"
     objecttolerance="10"
     gridtolerance="10"
     guidetolerance="10"
     inkscape:pageopacity="0"
     inkscape:pageshadow="2"
     inkscape:window-width="1680"
     inkscape:window-height="1005"
     id="namedview1193"
     showgrid="false"
     inkscape:zoom="0.46093841"
     inkscape:cx="255.9995"
     inkscape:cy="255.9995"
     inkscape:window-x="0"
     inkscape:window-y="1"
     inkscape:window-maximized="1"
     inkscape:current-layer="Capa_1" /><path
     d="M 496.06445 0 C 494.20851 0.0072880554 492.33328 0.42 490.52734 1.3242188 L 405.54102 43.818359 C 400.44602 46.360359 397.23047 51.566953 397.23047 57.251953 L 397.23047 93.521484 L 168.47266 322.27734 L 113.54102 303.96875 C 108.13702 302.17275 102.19297 303.57361 98.167969 307.59961 L 13.181641 392.58594 C 5.3456406 400.42194 8.4177344 413.88489 19.052734 417.46289 L 75.664062 436.33203 L 94.537109 492.94727 C 98.108109 503.56027 111.53106 506.70336 119.41406 498.81836 L 204.40039 413.83203 C 208.42539 409.80703 209.82725 403.86108 208.03125 398.45508 L 189.72266 343.52344 L 418.47852 114.76758 L 454.74609 114.76758 C 460.43109 114.76758 465.63964 111.55003 468.18164 106.45703 L 510.67578 21.470703 C 515.56025 11.720328 506.08655 -0.039355499 496.06445 0 z M 45.050781 81.951172 C 33.509406 81.951172 21.968641 86.345313 13.181641 95.132812 C -4.3933594 112.70781 -4.3933594 141.29709 13.181641 158.87109 C 27.013641 172.70309 47.603797 175.47606 64.341797 167.53906 L 172.5293 275.72852 L 193.77734 254.48047 L 85.587891 146.29102 C 86.070891 145.27502 86.618484 144.29205 87.021484 143.24805 C 128.93248 143.82405 196.69734 155.68342 254.02734 194.23242 L 318.08008 130.17773 C 249.64808 82.903734 160.90808 71.607219 82.080078 101.44922 C 80.555078 99.240219 78.885875 97.096813 76.921875 95.132812 C 68.134375 86.345313 56.592156 81.951172 45.050781 81.951172 z M 381.82227 193.91797 L 317.76758 257.97266 C 356.31758 315.30466 368.17495 383.06947 368.75195 424.98047 C 367.70795 425.38447 366.72408 425.92911 365.70508 426.41211 L 257.51758 318.22266 L 236.27148 339.46875 L 344.46094 447.66016 C 336.52094 464.39816 339.29691 484.98831 353.12891 498.82031 C 370.70391 516.39331 399.29514 516.39331 416.86914 498.82031 C 434.44114 481.24531 434.44019 452.65312 416.86719 435.07812 C 414.90119 433.11413 412.75978 431.44592 410.55078 429.91992 C 440.39078 351.09192 429.09627 262.35097 381.82227 193.91797 z "
     id="path1144" /></svg>

<?xml version="1.0" encoding="iso-8859-1"?>
<!-- Generator: Adobe Illustrator 19.0.0, SVG Export Plug-In . SVG Version: 6.00 Build 0)  -->
<svg version="1.1" id="Capa_1" xmlns="http://www.w3.org/2000/svg" xmlns:xlink="http://www.w3.org/1999/xlink" x="0px" y="0px"
	 viewBox="0 0 511.999 511.999" style="enable-background:new 0 0 511.999 511.999;" xml:space="preserve">
<g>
	<g>
		<path d="M490.528,1.324l-84.987,42.495c-5.095,2.542-8.31,7.748-8.31,13.433v36.27L168.473,322.278l-54.932-18.31
			c-5.404-1.796-11.349-0.395-15.374,3.631l-84.986,84.987c-7.836,7.836-4.763,21.299,5.872,24.877l56.612,18.87l18.872,56.614
			c3.571,10.613,16.994,13.757,24.877,5.872l84.987-84.987c4.025-4.025,5.427-9.97,3.631-15.376l-18.31-54.932l228.756-228.756
			h36.268c5.685,0,10.893-3.217,13.435-8.31l42.494-84.987C516.464,9.915,502.086-4.463,490.528,1.324z"/>
	</g>
</g>
<g>
	<g>
		<path d="M416.868,435.079c-1.966-1.964-4.109-3.633-6.318-5.159c29.84-78.828,18.546-167.569-28.728-236.002l-64.054,64.054
			c38.55,57.332,50.406,125.097,50.983,167.008c-1.044,0.404-2.026,0.949-3.045,1.432L257.518,318.222l-21.246,21.246
			L344.461,447.66c-7.94,16.738-5.164,37.328,8.668,51.16c17.575,17.573,46.166,17.573,63.74,0
			C434.441,481.245,434.441,452.654,416.868,435.079z"/>
	</g>
</g>
<g>
	<g>
		<path d="M254.027,194.232l64.054-64.054c-68.432-47.274-157.172-58.57-236-28.728c-1.525-2.209-3.195-4.354-5.159-6.318
			c-17.575-17.575-46.166-17.575-63.74,0c-17.575,17.575-17.575,46.166,0,63.74c13.832,13.832,34.421,16.605,51.159,8.668
			L172.53,275.729l21.248-21.248L85.587,146.291c0.483-1.016,1.031-1.999,1.434-3.043
			C128.932,143.824,196.697,155.683,254.027,194.232z"/>
	</g>
</g>
<g>
</g>
<g>
</g>
<g>
</g>
<g>
</g>
<g>
</g>
<g>
</g>
<g>
</g>
<g>
</g>
<g>
</g>
<g>
</g>
<g>
</g>
<g>
</g>
<g>
</g>
<g>
</g>
<g>
</g>
</svg>
